x-pack/solutions/observability/plugins/observability_onboarding/public/icons/kubernetes.svg

<svg width="25" height="24" viewBox="0 0 25 24" fill="none" xmlns="http://www.w3.org/2000/svg">
<g id="Kubernetes" clip-path="url(#clip0_2762_20485)">
<path id="Vector" d="M12.6679 0.00240417C12.9341 -0.0110958 13.2004 0.0421542 13.4404 0.156904L21.7856 4.1349C22.0008 4.23712 22.1901 4.38658 22.3394 4.57215C22.4888 4.75773 22.5943 4.97462 22.6481 5.20665L24.7106 14.1474C24.7639 14.3791 24.7638 14.62 24.7103 14.8516C24.6567 15.0833 24.5512 15.2998 24.4016 15.4847L18.6289 22.6547C18.3259 23.0297 17.8669 23.2487 17.3816 23.2479L8.12063 23.2502C7.63463 23.2502 7.17563 23.0312 6.87263 22.6554L1.09763 15.4869C0.949159 15.3015 0.844407 15.0849 0.791169 14.8534C0.737931 14.6219 0.737577 14.3813 0.790134 14.1497L2.84888 5.2089C2.9027 4.97666 3.00829 4.75957 3.15777 4.57386C3.30725 4.38815 3.49675 4.2386 3.71213 4.1364L12.0559 0.157654C12.2471 0.0661542 12.4549 0.0136542 12.6671 0.00315417L12.6679 0.00240417ZM12.7504 3.04515C12.4744 3.04515 12.2501 3.29265 12.2501 3.59865L12.2516 3.6129C12.2516 3.65415 12.2494 3.7044 12.2501 3.7404C12.2576 3.9174 12.2951 4.0524 12.3184 4.2144C12.3611 4.5624 12.3956 4.85115 12.3739 5.1189C12.3529 5.22015 12.2786 5.3124 12.2119 5.3769L12.2006 5.58765C10.612 5.71453 9.12718 6.42714 8.03438 7.58715C7.97888 7.54965 7.88288 7.48065 7.85438 7.45965C7.76438 7.47165 7.67438 7.4994 7.55738 7.43115C7.33388 7.28115 7.12988 7.0734 6.88388 6.82365C6.77138 6.70365 6.68888 6.59115 6.55538 6.47565C6.52538 6.4494 6.47813 6.41415 6.44438 6.38715C6.3454 6.30733 6.22343 6.26133 6.09638 6.2559C6.02101 6.25195 5.94576 6.26578 5.87671 6.29627C5.80766 6.32675 5.74675 6.37304 5.69888 6.4314C5.52638 6.6474 5.58188 6.9759 5.82113 7.16641L5.82863 7.1724C5.86163 7.19865 5.90213 7.23241 5.93213 7.25491C6.07463 7.35991 6.20438 7.41391 6.34613 7.49716C6.64463 7.68165 6.89288 7.83465 7.08863 8.0184C7.16588 8.09941 7.17863 8.24341 7.18913 8.30566L7.34963 8.44815C6.46622 9.77043 6.10292 11.3727 6.32963 12.9467L6.12113 13.0067C6.06563 13.0787 5.98838 13.1904 5.90663 13.2242C5.64938 13.3044 5.36063 13.3344 5.01113 13.3704C4.84763 13.3839 4.70588 13.3764 4.53188 13.4087C4.49438 13.4162 4.44038 13.4304 4.39913 13.4402L4.39463 13.4409L4.38713 13.4432C4.09238 13.5144 3.90338 13.7844 3.96413 14.0507C4.02563 14.3169 4.31288 14.4782 4.60913 14.4144L4.61663 14.4137L4.62638 14.4107C4.66763 14.4017 4.71938 14.3912 4.75538 14.3814C4.92638 14.3364 5.05013 14.2689 5.20313 14.2104C5.53313 14.0919 5.80763 13.9929 6.07388 13.9547C6.18563 13.9457 6.30263 14.0229 6.36113 14.0559L6.57863 14.0184C7.06783 15.5268 8.09229 16.8039 9.45863 17.6087L9.36863 17.8262C9.40088 17.9109 9.43688 18.0249 9.41288 18.1082C9.31538 18.3587 9.15038 18.6242 8.96063 18.9189C8.86913 19.0554 8.77538 19.1619 8.69288 19.3179C8.67338 19.3554 8.64788 19.4124 8.62838 19.4522C8.50088 19.7259 8.59463 20.0417 8.84138 20.1602C9.08888 20.2802 9.39713 20.1542 9.53063 19.8789L9.53138 19.8782V19.8767C9.55013 19.8384 9.57713 19.7867 9.59363 19.7499C9.66413 19.5887 9.68738 19.4499 9.73763 19.2932C9.86963 18.9617 9.94238 18.6144 10.1239 18.3977C10.1741 18.3377 10.2551 18.3152 10.3391 18.2927L10.4524 18.0879C11.9349 18.6582 13.5756 18.6625 15.0611 18.0999L15.1676 18.2919C15.2531 18.3197 15.3469 18.3339 15.4226 18.4464C15.5591 18.6789 15.6521 18.9527 15.7654 19.2849C15.8149 19.4409 15.8404 19.5797 15.9109 19.7424C15.9266 19.7784 15.9536 19.8302 15.9724 19.8699C16.1051 20.1452 16.4149 20.2712 16.6624 20.1519C16.9099 20.0334 17.0036 19.7169 16.8754 19.4432C16.8559 19.4042 16.8304 19.3464 16.8101 19.3089C16.7276 19.1529 16.6339 19.0479 16.5424 18.9114C16.3534 18.6167 16.1966 18.3714 16.0999 18.1202C16.0586 17.9904 16.1066 17.9102 16.1374 17.8262C16.1186 17.8044 16.0781 17.6822 16.0549 17.6252C17.4257 16.8137 18.4502 15.5265 18.9334 14.0087C18.9979 14.0192 19.1104 14.0387 19.1471 14.0462C19.2221 13.9967 19.2911 13.9322 19.4269 13.9427C19.6931 13.9817 19.9669 14.0799 20.2969 14.1984C20.4506 14.2569 20.5744 14.3259 20.7454 14.3709C20.7814 14.3807 20.8331 14.3897 20.8744 14.3987L20.8841 14.4017L20.8916 14.4032C21.1879 14.4669 21.4751 14.3049 21.5366 14.0387C21.5966 13.7724 21.4084 13.5024 21.1136 13.4312C21.0709 13.4214 21.0101 13.4049 20.9689 13.3974C20.7949 13.3644 20.6539 13.3727 20.4889 13.3592C20.1401 13.3224 19.8514 13.2924 19.5941 13.2122C19.4891 13.1717 19.4149 13.0472 19.3789 12.9954L19.1764 12.9369C19.2837 12.161 19.2484 11.3721 19.0721 10.6089C18.8955 9.83763 18.5785 9.10544 18.1369 8.4489C18.1879 8.4024 18.2861 8.31616 18.3139 8.2914C18.3214 8.20141 18.3146 8.10766 18.4076 8.00866C18.6041 7.82416 18.8516 7.67115 19.1501 7.4874C19.2926 7.4049 19.4231 7.3509 19.5656 7.2459C19.5979 7.22191 19.6414 7.1844 19.6751 7.1574C19.9151 6.96616 19.9699 6.63765 19.7981 6.4224C19.6256 6.20715 19.2926 6.1869 19.0534 6.37741C19.0189 6.40441 18.9731 6.43965 18.9424 6.46591C18.8081 6.58066 18.7249 6.69465 18.6124 6.8139C18.3664 7.06365 18.1624 7.27216 17.9389 7.4229C17.8421 7.47916 17.7004 7.45965 17.6359 7.4559L17.4461 7.59091C16.3516 6.44469 14.8785 5.73428 13.3001 5.5914C13.2957 5.51719 13.2919 5.44294 13.2889 5.36865C13.2236 5.3064 13.1449 5.25315 13.1254 5.1189C13.1036 4.85115 13.1404 4.5624 13.1824 4.2144C13.2049 4.0524 13.2439 3.9174 13.2499 3.7404C13.2521 3.70065 13.2499 3.6429 13.2499 3.59865C13.2499 3.29265 13.0256 3.04515 12.7496 3.04515H12.7504ZM12.1249 6.91215L11.9764 9.52816L11.9659 9.53341C11.9624 9.61294 11.9375 9.69004 11.8937 9.75652C11.8499 9.82299 11.7888 9.87634 11.7171 9.91089C11.6454 9.94545 11.5657 9.9599 11.4864 9.95273C11.4071 9.94556 11.3312 9.91702 11.2669 9.87016L11.2624 9.87165L9.11438 8.35141C9.93019 7.55062 10.9894 7.04424 12.1249 6.91215ZM13.3759 6.91215C14.5041 7.05156 15.5555 7.55745 16.3684 8.35215L14.2339 9.86341L14.2264 9.8604C14.162 9.90718 14.0862 9.93567 14.0069 9.94285C13.9277 9.95003 13.848 9.93563 13.7763 9.90119C13.7045 9.86675 13.6435 9.81354 13.5995 9.74721C13.5556 9.68087 13.5304 9.60389 13.5266 9.52441L13.5244 9.52365L13.3759 6.91215ZM8.33588 9.32866L10.2964 11.0799L10.2941 11.0904C10.3545 11.1425 10.3996 11.21 10.4245 11.2857C10.4494 11.3615 10.4531 11.4426 10.4354 11.5203C10.4177 11.5981 10.3791 11.6695 10.3238 11.7269C10.2685 11.7844 10.1986 11.8257 10.1216 11.8464L10.1194 11.8539L7.60538 12.5792C7.48014 11.4446 7.73694 10.3008 8.33513 9.32866H8.33588ZM17.1506 9.3294C17.4416 9.8019 17.6629 10.3277 17.7941 10.8992C17.9208 11.4468 17.9575 12.0114 17.9029 12.5709L15.3754 11.8434L15.3739 11.8337C15.2971 11.8127 15.2274 11.7713 15.1722 11.7138C15.1171 11.6564 15.0786 11.585 15.0609 11.5074C15.0432 11.4297 15.0469 11.3488 15.0717 11.2731C15.0964 11.1974 15.1412 11.1298 15.2014 11.0777L15.1999 11.0724L17.1499 9.3294H17.1506ZM12.3476 11.2157H13.1509L13.6504 11.8382L13.4711 12.6167L12.7496 12.9624L12.0266 12.6152L11.8466 11.8374L12.3476 11.2149V11.2157ZM14.9239 13.3487C14.9578 13.3472 14.9918 13.3497 15.0251 13.3562L15.0289 13.3502L17.6299 13.7897C17.2456 14.8672 16.5129 15.7859 15.5479 16.4004L14.5384 13.9659L14.5414 13.9622C14.5132 13.8969 14.5012 13.8258 14.5065 13.7549C14.5118 13.684 14.5342 13.6155 14.5718 13.5551C14.6094 13.4948 14.6611 13.4445 14.7224 13.4085C14.7837 13.3726 14.8529 13.352 14.9239 13.3487ZM10.5559 13.3592C10.628 13.3604 10.6987 13.3793 10.7618 13.4143C10.8249 13.4493 10.8784 13.4992 10.9177 13.5597C10.957 13.6203 10.9808 13.6895 10.987 13.7614C10.9932 13.8332 10.9817 13.9055 10.9534 13.9719L10.9609 13.9809L9.96263 16.3914C9.00417 15.779 8.27467 14.8673 7.88738 13.7979L10.4651 13.3614L10.4696 13.3667C10.4981 13.3614 10.527 13.3589 10.5559 13.3592ZM12.7339 14.4144C12.8052 14.4121 12.876 14.4273 12.9401 14.4587C13.0242 14.4986 13.0933 14.5643 13.1374 14.6462H13.1471L14.4176 16.9389C14.2526 16.9937 14.0831 17.0409 13.9099 17.0807C12.9751 17.2944 11.9992 17.244 11.0914 16.9352L12.3589 14.6477H12.3611C12.3975 14.5797 12.4511 14.5225 12.5165 14.4817C12.5819 14.4409 12.6569 14.418 12.7339 14.4152V14.4144Z" fill="#326CE5"/>
</g>
<defs>
<clipPath id="clip0_2762_20485">
<rect width="24" height="24" fill="white" transform="translate(0.75 9.15527e-05)"/>
</clipPath>
</defs>
</svg>

<svg xmlns="http://www.w3.org/2000/svg" width="25" height="24" fill="none"><g clip-path="url(#a)"><path fill="#326CE5" d="M12.668.002c.266-.013.532.04.772.155l8.346 3.978a1.58 1.58 0 0 1 .862 1.072l2.063 8.94a1.57 1.57 0 0 1-.31 1.338l-5.772 7.17a1.6 1.6 0 0 1-1.247.593l-9.261.002c-.486 0-.945-.219-1.248-.595l-5.775-7.168A1.58 1.58 0 0 1 .79 14.15L2.85 5.209a1.58 1.58 0 0 1 .863-1.073L12.056.158c.191-.092.399-.144.611-.155m.082 3.043c-.276 0-.5.248-.5.554l.002.014c0 .041-.003.091-.002.127.008.177.045.312.068.474.043.348.078.637.056.905a.54.54 0 0 1-.162.258l-.011.21a6.43 6.43 0 0 0-4.167 2l-.18-.127c-.09.012-.18.04-.297-.029-.223-.15-.427-.358-.673-.607-.113-.12-.195-.233-.329-.348-.03-.027-.077-.062-.11-.089a.6.6 0 0 0-.349-.131.48.48 0 0 0-.397.175c-.173.216-.117.545.122.735l.008.006.103.083c.143.105.272.159.414.242.299.185.547.338.743.521.077.081.09.225.1.288l.16.142a6.44 6.44 0 0 0-1.02 4.499l-.208.06c-.055.072-.133.183-.214.217-.258.08-.546.11-.896.146-.163.014-.305.006-.48.039-.037.007-.09.021-.132.031h-.004l-.008.003c-.295.071-.484.341-.423.608.062.266.349.427.645.363h.008l.01-.003c.04-.01.092-.02.128-.03.171-.045.295-.112.448-.17.33-.12.605-.218.87-.256.113-.01.23.068.288.1l.218-.037a6.5 6.5 0 0 0 2.88 3.59l-.09.218c.032.085.068.199.044.282-.098.25-.263.516-.452.81-.092.137-.186.244-.268.4-.02.037-.045.094-.065.134-.127.274-.033.59.213.708.248.12.556-.006.69-.281v-.002c.02-.039.046-.09.063-.127.07-.161.093-.3.144-.457.132-.331.204-.679.386-.895.05-.06.131-.083.215-.105l.113-.205a6.46 6.46 0 0 0 4.61.012l.106.192c.085.028.179.042.255.154.136.233.23.507.342.839.05.156.075.295.146.457.016.036.043.088.061.128.133.275.443.401.69.282.248-.119.342-.435.213-.709-.02-.039-.045-.097-.065-.134-.082-.156-.176-.261-.268-.398-.189-.294-.345-.54-.442-.79-.041-.13.007-.21.037-.295-.018-.022-.059-.144-.082-.2a6.5 6.5 0 0 0 2.878-3.617c.065.01.177.03.214.037.075-.05.144-.114.28-.103.266.039.54.137.87.255.154.059.277.128.448.173.036.01.088.019.13.028l.01.003.007.001c.296.064.583-.098.645-.364.06-.267-.129-.537-.423-.608-.043-.01-.104-.026-.145-.034-.174-.033-.315-.024-.48-.038-.349-.037-.638-.067-.895-.147-.105-.04-.18-.165-.215-.217l-.203-.058a6.4 6.4 0 0 0-.104-2.328 6.5 6.5 0 0 0-.935-2.16c.05-.047.15-.133.177-.158.007-.09 0-.183.094-.282.196-.185.444-.338.742-.522.143-.082.273-.136.416-.241.032-.024.075-.062.11-.089.24-.19.294-.52.122-.735s-.505-.235-.745-.045c-.034.027-.08.063-.11.089-.135.115-.218.229-.33.348-.247.25-.45.458-.674.609-.097.056-.239.037-.303.033l-.19.135a6.55 6.55 0 0 0-4.146-2l-.011-.222c-.065-.063-.144-.116-.164-.25-.021-.268.015-.557.057-.905.023-.162.062-.297.068-.474.002-.04 0-.097 0-.141 0-.306-.224-.554-.5-.554m-.625 3.867-.149 2.616-.01.005a.44.44 0 0 1-.7.337l-.004.002-2.148-1.52a5.15 5.15 0 0 1 3.01-1.44m1.25 0c1.13.14 2.18.645 2.993 1.44l-2.134 1.511-.008-.003a.441.441 0 0 1-.7-.336h-.002zM8.336 9.33l1.961 1.75-.002.011a.44.44 0 0 1-.172.756l-.003.008-2.514.725a5.13 5.13 0 0 1 .73-3.25m8.816 0a5.2 5.2 0 0 1 .752 3.242l-2.528-.728-.001-.01a.44.44 0 0 1-.173-.755l-.001-.006 1.95-1.743m-4.803 1.887h.803l.5.622-.18.779-.721.345-.723-.347-.18-.778.5-.622m2.576 2.133a.4.4 0 0 1 .101.007l.004-.006 2.6.44a5.14 5.14 0 0 1-2.081 2.61l-1.01-2.434.003-.004a.44.44 0 0 1 .383-.613m-4.368.01a.44.44 0 0 1 .397.613l.008.009-.998 2.41a5.17 5.17 0 0 1-2.076-2.593l2.578-.437.005.006a.5.5 0 0 1 .086-.008m2.178 1.055a.44.44 0 0 1 .206.045c.084.04.153.105.197.187h.01l1.27 2.293a5.173 5.173 0 0 1-3.326-.004l1.268-2.287h.002a.44.44 0 0 1 .373-.233"/></g><defs><clipPath id="a"><path fill="#fff" d="M.75 0h24v24h-24z"/></clipPath></defs></svg>
